!!!OTL: Junker Balzer
!!!ARE: Europa, Mitteleuropa, Deutschland
!!!SCT: A0393
!!!YEM: Copyright 1995, estate of Helmut Schaffrath.
**kern
*ICvox
*Ivox
!! Mixed meters:  6/2; 4/2
*M6/2
*k[f#c#]
*D:
{2d
2d
2d
=1
1a
2b
2ccn
1b
=2
1a
2r}
{2g
2a
2b
=3
2ccn
1a
2g
1fn
=4
*M4/2
1e
2r}
{2b
=5
2ccn
2b
2a
2g
=6
*M6/2
2.e
4d
4e
4fn
1g
4fn
4e
=7
*M4/2
1d
1cn
=8
2r}
{2a
2a
2a
=9
*M6/2
1fn
2d
1g
2fn
=10
*M4/2
1g}
{1b
=11
*M6/2
1ccn
2a
1dd
4ccn
4b
=12
1.a
4g
4fn
1e
=13
1.d}
==
!!!AGN: Romanze, Ballade, Lied, religioeses Lied
!! Souterliedekens 1540 ad Ps. 46
!!!ONB: ESAC (Essen Associative Code) Database: ALTDEU
!!!AMT: irregular
!!!AIN: vox
!!!EED: Helmut Schaffrath
!!!EEV: 1.0
*-
